style-guide/assets/xd-icons-activity.svg

<svg viewBox="0 0 24 24" xmlns="http://www.w3.org/2000/svg">
    <path d="M16 23c-.409 0-.776-.249-.929-.629L8 4.692l-3.071 7.679c-.153.38-.52.629-.929.629H1a1 1 0 1 1 0-2h2.323l3.748-9.371a1.002 1.002 0 0 1 1.858 0L16 19.308l3.071-7.679c.153-.38.52-.629.929-.629h3a1 1 0 1 1 0 2h-2.323l-3.748 9.371c-.153.38-.52.629-.929.629"/>
</svg>

<?xml version="1.0" encoding="UTF-8"?>
<svg width="24px" height="24px" viewBox="0 0 24 24" version="1.1" xmlns="http://www.w3.org/2000/svg" xmlns:xlink="http://www.w3.org/1999/xlink">
    <!-- Generator: Sketch 51.3 (57544) - http://www.bohemiancoding.com/sketch -->
    <title>activity</title>
    <desc>Created with Sketch.</desc>
    <defs>
        <path d="M16,23 C15.591,23 15.224,22.751 15.071,22.371 L8,4.692 L4.929,12.371 C4.776,12.751 4.409,13 4,13 L1,13 C0.448,13 0,12.553 0,12 C0,11.447 0.448,11 1,11 L3.323,11 L7.071,1.629 C7.224,1.249 7.591,1 8,1 C8.409,1 8.776,1.249 8.929,1.629 L16,19.308 L19.071,11.629 C19.224,11.249 19.591,11 20,11 L23,11 C23.552,11 24,11.447 24,12 C24,12.553 23.552,13 23,13 L20.677,13 L16.929,22.371 C16.776,22.751 16.409,23 16,23" id="path-1"></path>
    </defs>
    <g id="activity" stroke="none" stroke-width="1" fill="none" fill-rule="evenodd">
        <mask id="mask-2" fill="white">
            <use xlink:href="#path-1"></use>
        </mask>
        <use id="icons/24px/Activity" fill="#000000" xlink:href="#path-1"></use>
    </g>
</svg>
